X:2317
L:1/8
Q:1/2=80
M:4/4
K:G
"^cr in MS" g | e2 ed eAAB | dedB GABd | e2 ed e>fge | dBgB A/A/A A :: g | edef g2 fe | 
 d>edB d>edB | edef g2 fe | dBgB A2 A :|

